lib/flags/s/CF.svg

<svg xmlns="http://www.w3.org/2000/svg" fill="none" viewBox="0 0 16 12"><mask id="CF_svg__a" width="16" height="12" x="0" y="0" mask-type="alpha" maskUnits="userSpaceOnUse"><path fill="#fff" d="M0 0H16V12H0z"/></mask><g fill-rule="evenodd" clip-rule="evenodd" mask="url(#CF_svg__a)"><path fill="#3D58DB" d="M0 0H16V3H0V0Z"/><path fill="#F7FCFF" d="M0 3H16V6H0V3Z"/><path fill="#73BE4A" d="M0 6H16V9H0V6Z"/><path fill="#FFD018" d="M0 9H16V12H0V9Z"/><path fill="#FECA00" d="M2.26473 2.70803L1.05246 3.54888L1.43983 2.1087L0.549896 1.18871L1.75491 1.13897L2.26473 -0.285156L2.77455 1.13897H3.97752L3.08964 2.1087L3.5343 3.46388L2.26473 2.70803Z"/><path fill="#E11C1B" d="M6 0H10V12H6V0Z"/></g></svg>

<svg xmlns="http://www.w3.org/2000/svg" fill="none" viewBox="0 0 16 12"><mask id="CF_svg__a" width="16" height="12" x="0" y="0" maskUnits="userSpaceOnUse"><path fill="#fff" d="M0 0h16v12H0z"/></mask><g fill-rule="evenodd" clip-rule="evenodd" mask="url(#CF_svg__a)"><path fill="#3D58DB" d="M0 0h16v3H0V0z"/><path fill="#F7FCFF" d="M0 3h16v3H0V3z"/><path fill="#73BE4A" d="M0 6h16v3H0V6z"/><path fill="#FFD018" d="M0 9h16v3H0V9z"/><path fill="#FECA00" d="M2.265 2.708l-1.213.84.388-1.44-.89-.92 1.205-.049.51-1.424.51 1.424h1.203l-.888.97.444 1.355-1.27-.756z"/><path fill="#E11C1B" d="M6 0h4v12H6V0z"/></g></svg>
